X:150
T:Let All Mortal Flesh Keep Silence
%%stretchlast false
M:4/4
L:1/4
K:Eb clef=C1
"^vi"[C,E,G,C] [C,E,G,D] [C,E,G,E] [C,E,G,F] | [C,E,CG]2 "^IVmaj7"[A,,CEG] "^viiø7²"[A,,CDF] | "^vi¹"[E,,CG]2 "^vi"[C,,CEG]2 | [C,E,CG] [C,E,CG] "^vi+"[B,,E,CA] "^vi7²"[G,,E,CB] | "^ii7"[F,,E,CA]2 "^I²"[B,,E,B,G] "^V"[B,,D,B,F] | "^I"[E,,E,B,G]4 | "^IV"[A,,E,C] [A,,E,CD] [A,,E,CE] "^ii7¹"[A,,E,CF] | "^vi¹"[E,,E,CG]2 "^ii"[F,,A,CG] [F,,A,CF] | "^vi¹"[E,,G,CG]2 "^vi"[C,,CEG]2 | [C,E,EG] [C,E,EG] "^i"[B,,E,FA] "^I"[E,,E,GB] | "^IV"[A,,E,CA]2 [A,,C,CG] "^ii¹"[A,,F,CF] | "^III"[G,,D,=B,G]4 | "^VI¹"[=E,,C,CG] [=E,,C,CG] [=E,,C,Cc] "^V/ii¹"[=E,,C,CG] | "^ii"[F,,C,A,F]3 "^ii7"[F,,C,A,E] | "^vi"[C,E,G,C] [C,E,G,E] [C,E,G,G] "^IV¹"[C,E,A,E] | "^iii"[G,,D,B,D]4 | "^vi¹"[E,,C,CG] [E,,C,CG] [E,,C,Cc] "^vi7¹"[E,,C,B,G] | "^ii"[F,,C,CF]2 "^V"[B,,F,B,D] "^I¹"[G,,G,B,E] | "^vi"[C,E,G,C]4 |]
